X:1
T:Granada
T:Granada (Serenade)
T:Suite Española, Op. 47, No. 01
T:Isaac Albéniz (1860 - 1909)
C:Isaac Albéniz
%%score ( 1 2 3 )
L:1/8
Q:1/4=55
M:3/8
K:E
V:1 treble-8 nm="Classical Guitar" snm="Guit."
V:2 treble-8 
V:3 treble-8 
V:1
"^Lento"!p!"^VII" [gb][gb][gb] | [gb][gb][gb] | !arpeggio![gb][gb][gb] | [gb][gb][gb] | %4
"^VII" [gb][gb][gb] | [gb][gb][gb] | !arpeggio![gb][gb][gb] | [gb][gb][gb] | %8
"^VII" !arpeggio![db][db][db] | !arpeggio![db]bb | b[db][dab] | [dab][dab][dab] | %12
 !arpeggio![db][db][db] |!<(! [db]b!<)!b | b[db][dab] | [dab][dab][dab] |!p! [gb][gb][gb] | %17
 [gb][gb][gb] | !arpeggio![gb][gb][gb] | [gb][gb][gb] |!pp!"^VII" b[=gb][gb] | [=gb][gb][gb] | %22
 !arpeggio![=gb][gb][gb] | [=gb][gb][gb] |!p! !arpeggio![db][db]!<(![db] | bb!<)!b | [gb][gb][gb] | %27
!mf!"^IX" [^egc'][egc']!<(![egc'] | aaa!<)! | aa z |1"^IV" z2!>(! [Beg] | [Beg][Beg][Beg]!>)! | %32
!p! !arpeggio![^Beg][Beg][Beg] | [^Beg][Beg][Beg] | [eg][Beg][Beg] | [Beg][Beg][Beg] | %36
!p! !arpeggio![^Beg][Beg][Beg] | [^Beg][Beg][Beg] | [eg][Beg][Beg] | [Beg] z2 ||[K:G]!p! z3 | z3 | %42
 z3 | z3 || e3 |"^II" ^d2 B | b3 |"^II" z/ f/g/a/{/ga}g/f/ | b/e/f/g/{/fg}f/e/ | %49
"^II" ^d/B/^A/B/d/c/ | B3 | [AB]3 ||[K:E] e3 |"^II" d2 B | b3 |"^II" z/ f/g/a/{/ga}g/f/ | %56
 b/e/f/g/{/fg}f/e/ |"^II" a2 g | [Ge]3 | [Ge] g2 ||[K:C] e3 | d2 G |{/G} g3 | %63
"^III" z/ f/g/_a/{/ga}g/f/ | e/f/g/f/e/g/ |"^I" f/e/d/e/f/d/ | e>Gc |"^I" z/ _B/_A/G/A/B/ | %68
{/G} e3 | d2 G |{/G} g3 |"^III" z/ f/!<(!g/_a/_b/c'/!<)! |{/_bc'} b/_a/g/f/g/a/ | %73
!>(!{/fg} f/e/d/e/f/g/!>)! |!pp! [ce][ce][ce] | [ce][ce][ce] | [ce][ce][ce] | [ce][ce][ce] | %78
 [ce][ce][ce] | [ce][ce][ce] | [ce][ce][ce] | [ce][ce][ce] | e[ce][ce] | [ce][ce][ce] | %84
"^II" e[Ae][Ae] |!<(! [^FA^d][FAd][FAd]!<)! ||[K:G]!p! e3 | ^d2 B | b3 |"^II" z/ f/g/a/{/ga}g/f/ | %90
 b/e/f/g/{/fg}f/e/ |"^II" ^d/B/^A/B/d/c/ | B3 | [AB]3 ||[K:E]!pp! e3 | d2 B | b3 | %97
"^II" z/ f/g/a/{/ga}g/f/ | b/e/f/g/{/fg}f/e/ |"^II" a2 g | [Ge]3 | [Ge] g2 | g/f/ e2- | e3 | %104
 g/f/ e2- | e3 | g/f/ e2- | e3 | g/f/ e2- | e3 | e/=d/ =c2 | e/=d/ =c2 |"^VII" z2 [Bdf]- | %113
 [Bdf]"^V" [ef]2 |"^VII" z2 [Bdf]- | [Bdf]"^V" [ef]2 | z E/F/A/=c/ | F/d/ A/B/=c/e/ | %118
 F/d/"^V" e/f/a/=c'/ |"^VII"!<(! [db]/f/ [ca]/d/"^VII" [Ag]/B/!<)! :|2!p!"^IV" z2 [Beg] || %121
 [Beg][Beg][Beg] | [^Beg][Beg][Beg] | [^Beg][Beg][Beg] | [eg][Beg][Beg] | [Beg][Beg][Beg] | %126
 [^Beg][Beg][Beg] | [^Beg][Beg][Beg] | [eg][Beg][Beg] | [Beg] z2 | z/ B,/E/G/B/e/ | %131
 g/G/B/e/"^IV"g/b/ | e'3 | !fermata![Beg]3 |] %134
V:2
 !arpeggio!e3 | z/ d/c/B/c/d/ | (3(c/d/)c/ B2- | B3 | !arpeggio!e3 | z/ d/c/B/c/d/ | %6
 (3(c/d/)c/ B2- | B3 | F/G/ A A/B/ | c>d f/d/ | (3(c/d/c/) B2- | B3 | F/G/ A A/B/ | c d/g/f/d/ | %14
 (3(c/d/!>(!c/) B2-!>)! | B3 | !arpeggio!e3 | z/ d/c/B/c/d/ | (3(c/d/)c/ B2- | B3 | %20
 !arpeggio![=D=d=g]3 | z/ f/e/=d/e/f/ | (3(e/f/)e/ =d2- | d3 | F/G/ A B/c/ | f2 d | (3(c/d/c/) B2 | %27
 z Gc | [Fc]/d/ e c/F/ | (3([B,c]/d/c/)B B, |1 [E,G]/F/ E2- | E3 | [E,G]/F/ E2- | E3 | %34
 !arpeggio![E,G=B]/F/ E2- | E3 | [E,G]/F/ E2- | E3 | !arpeggio![E,G=B]/F/ E2- | E z !fermata!B, || %40
[K:G] E,B,[GB] | [Ac] f2 | E,B,[GB] | [Ac] f2 || E,B,[GB] | [FA] c2 | E,B,[GB] | [AB] d2 | %48
 E,B,[GB] | [B,A] F2 | z/ E/F/G/{/FG}F/E/ | ^D/C/B,/A,/G,/F,/ ||[K:E]{/E,-} E,B,[=GB] | [FA] =c2 | %54
 E,B,[=GB] | [AB] D2 | E,B,[GB] | d/c/d/c/ A/B/ |{/E,-} E,B,[G-B] | x3 ||[K:C] CEG | [F_A] =c2 | %62
 CEG | [F_A] _c2 | CEG | [C_A] F2 | C E,2 | [_A,CF] D2 | CEG | [F_A] _c2 | CEG | [_A,D] F2 | CGc | %73
 [D_A] F2 | !arpeggio![CEG]3 | z/ B/A/G/A/B/ | (3(A/B/A/) G2- | G3 | !arpeggio![CEG]3 | %79
 z/ B,/A,/G,/A,/B,/ | (3(A,/B,/A,/) G,2- | G,3 | (3(c/d/c/) ^F2- | F3 | (3(A/B/A/) ^F2 | B,3 || %86
[K:G] E,B,[GB] | [FA] c2 | E,B,[GB] | [AB] ^d2 | E,B,[GB] | [B,A] F2 | z/ E/F/G/{/FG}F/E/ | %93
 ^D/C/B,/A,/G,/F,/ ||[K:E]{/E,-} E,B,[=GB] | [FA] =c2 | E,B,[=GB] | [AB] D2 | E,B,[GB] | %99
 d/c/d/c/ A/B/ | E,B,[G-B] | x3 | ^B3 | G ^B2 | =B3 | G B2 | ^B3 | G ^B2 | =B3 | G B2 | [=C=G=c]3 | %111
 [A,F=c]3 | E, F2 | z/ A/[=G=c]/F/G/A/ | E, F2 | z/ A/[=G=c]/F/G/A/ | B,=CA, | B,=CA, | B,=cA | %119
 B2 B, :|2 [E,G]/F/ E2- || E3 | [E,G]/F/ E2- | E3 | [E,G=B]/F/ E2- | E3 | [E,G]/F/ E2- | E3 | %128
 [E,G=B]/F/ E2- | E z !fermata!B, | E,3 | B/B,/E/G/B/e/ | g3 | !fermata!E,3 |] %134
V:3
 [E,EB]3 | x x2 | x3 | x3 | [E,EB]3 | x3 | x3 | x3 | E, z2 | x3 | x3 | x3 | E, z2 | x3 | x3 | x3 | %16
 [E,EB]3 | x x2 | x3 | x3 | x3 | x3 | x3 | x3 | B, z2 | x3 | E3 | C3 | x3 | x3 |1 x3 | x3 | x3 | %33
 x3 | x3 | x3 | x3 | x3 | x3 | x3 ||[K:G] x3 | x3 | x3 | x3 || x3 | x3 | x3 | x3 | x3 | x3 | E,3 | %51
 x3 ||[K:E] x3 | x3 | x3 | x3 | x3 | [AB] B,2 | x3 | x3 ||[K:C] x3 | x3 | x3 | x3 | x3 | x3 | x3 | %67
 x3 | x3 | x3 | x3 | x3 | x3 | x3 | x3 | x3 | x3 | x3 | x3 | x3 | x3 | x3 | A,3 | x3 | B,3 | x3 || %86
[K:G] x3 | x3 | x3 | x3 | x3 | E,3 | E,3 | x3 ||[K:E] x3 | x3 | x3 | x3 | x3 | [AB] B,2 | x3 | x3 | %102
 E,^B,E | x3 | E,=B,E | x3 | E,^B,E | x3 | E,=B,E | x3 | x3 | x3 | x3 | x3 | x3 | x3 | x3 | x3 | %118
 x3 | x3 :|2 x3 || x3 | x3 | x3 | x3 | x3 | x3 | x3 | x3 | x3 | x3 | x3 | x3 | x3 |] %134

